digitransit-component/packages/digitransit-component-icon/src/assets/search-rail-station-digitransit.svg

<svg width="24" height="24" viewBox="0 0 28 28" xmlns="http://www.w3.org/2000/svg">
    <path d="M25.1997 28H2.8003C1.25347 28 0 26.7465 0 25.2006V2.8004C0 1.25351 1.25347 0 2.8003 0H25.1997C26.7465 0 28 1.25351 28 2.8004V25.2006C27.999 26.7465 26.7455 28 25.1997 28Z" />
    <path d="M22.1406 17.3111V8.24315C22.1406 6.29522 20.5612 2.80139 18.6133 2.80139H9.38764C7.43978 2.80139 5.86035 6.29522 5.86035 8.24315V17.3111C5.86035 19.259 7.43978 21.7957 9.38764 21.7957H9.59112L8.72288 22.8329H7.21556L6.25842 23.8542H7.8655L6.73748 25.2016H8.81474L9.94276 23.8542H18.0562L19.1842 25.2016H21.2615L20.1335 23.8542H21.7406L20.7834 22.8329H19.2781L18.4098 21.7957H18.6133C20.5612 21.7967 22.1406 19.26 22.1406 17.3111ZM19.7453 18.4075C19.1714 18.4075 18.7062 17.9423 18.7062 17.3694C18.7062 16.7955 19.1714 16.3312 19.7453 16.3312C20.3192 16.3312 20.7834 16.7965 20.7834 17.3694C20.7834 17.9433 20.3182 18.4075 19.7453 18.4075ZM10.9839 4.97059H17.0151V5.99197H10.9839V4.97059ZM8.25468 18.4075C7.68079 18.4075 7.21654 17.9423 7.21654 17.3694C7.21654 16.7955 7.68178 16.3312 8.25468 16.3312C8.82857 16.3312 9.29281 16.7965 9.29281 17.3694C9.29281 17.9433 8.82857 18.4075 8.25468 18.4075ZM7.61757 14.0859C7.38051 14.0217 7.21556 13.8074 7.21556 13.5614V8.12362C7.21556 7.82432 7.45855 7.58133 7.75784 7.58133H20.2401C20.5394 7.58133 20.7824 7.82432 20.7824 8.12362V13.5624C20.7824 13.8084 20.6185 14.0227 20.3804 14.0869C19.4351 14.3408 16.9272 14.5472 13.9985 14.5472C11.0698 14.5472 8.56286 14.3398 7.61757 14.0859ZM17.2008 22.8339H10.7982L11.6664 21.7967H16.3316L17.2008 22.8339Z" fill="white"/>
</svg>

<svg xmlns="http://www.w3.org/2000/svg" width="24" height="24" viewBox="0 0 28 28">
 <path d="M25.2 28H2.8A2.8 2.8 0 0 1 0 25.2V2.8A2.8 2.8 0 0 1 2.8 0h22.4A2.8 2.8 0 0 1 28 2.8v22.4a2.8 2.8 0 0 1-2.8 2.8"/>
 <path fill="#fff" d="M22.14 17.311V8.243c0-1.948-1.579-5.442-3.527-5.442H9.388c-1.948 0-3.528 3.494-3.528 5.442v9.068c0 1.948 1.58 4.485 3.528 4.485h.203l-.868 1.037H7.216l-.958 1.021h1.608l-1.129 1.348h2.078l1.128-1.348h8.113l1.128 1.348h2.078l-1.128-1.348h1.607l-.958-1.021h-1.505l-.868-1.037h.203c1.948 0 3.528-2.536 3.528-4.485m-2.395 1.096a1.039 1.039 0 1 1 0-2.077 1.039 1.039 0 0 1 0 2.078M10.984 4.971h6.031v1.021h-6.031zm-2.73 13.436a1.038 1.038 0 1 1 0-2.076 1.038 1.038 0 0 1 0 2.076m-.636-4.321a.54.54 0 0 1-.402-.525V8.124c0-.3.243-.543.542-.543H20.24c.3 0 .542.243.542.543v5.438c0 .246-.163.46-.402.525-.945.254-3.453.46-6.381.46-2.93 0-5.436-.207-6.381-.461m9.583 8.748h-6.403l.868-1.037h4.666z"/>
</svg>
